X: 122
T: Cantantibus organis – Moderato
C: Franciszek Walczyński
%%abc-version 2.0
%%abcx-abcm2ps-target-version 5.9.1 (29 Sep 2008)
%%abc-creator hum2abc beta
%%abcx-conversion-date 2021/10/04 07:38:39
%%abc-edited-by Kamil Watkowski
%%abcx-initial-encoding-date 2021-08-09
%%humdrum-veritas 333556197
%%humdrum-veritas-data 935115122
%%linebreak <none>
%%barnumbers 0
L: 1/8
M: 6/8
N: Derived from pl-kozmzk--mzk-m-346--024_walczynski-franciszek--cantantibus-organis-moderato.krn
%%staves {1 2}
V: 1 clef=treble
V: 2 clef=bass
K: A
[V:1] z6 & z6 | 
[V:2] z6 & A,,B,,C,F,,2G,, | 
[V:1] z6 & z6 | 
[V:2] z6 & A,,B,,C,E,2D, | 
[V:1] z6 & z6 | 
[V:2] A,B,CF,2G, & C,B,,A,,D,3 | 
[V:1] z6 & z6 | 
[V:2] A,B,CE2D & C,E,A,G,3 | 
[V:1] z6 & z6 | 
[V:2] C2^DB,2A, & A,2F,^D,3 | 
[V:1] z6 & EFGC2^D | 
[V:2] G,3A,3 & E,3F,3 | 
[V:1] z6 & EFGB2A | 
[V:2] B,3-B,3 & G,3^D,3 | 
[V:1] z6 & G2FE2=D | 
[V:2] B,2=DC2B, & E,6 | 
[V:1] ABcF2G & E6- | 
[V:2] C3D3 & A,3B,3 | 
[V:1] ABce2d & E6 | 
[V:2] C3B,3 & A,3^G,3 | 
[V:1] cBA dAB & E3A3- | 
[V:2] C3D2^D & A,=G,2F,2=F, | 
[V:1] c2BA3 & A2GA3 | 
[V:2] E^D=DC3 & E,3A,3 | 
[V:1] ABcF2G & z6 | 
[V:2] z6 & z6 | 
[V:1] ABce2d & z6 | 
[V:2] CB,A,G,3 & z6 | 
[V:1] cBAB2A & z6 | 
[V:2] A,B,C^D3 & z6 | 
[V:1] G3A2B & z2zz2F | 
[V:2] E2=DC2D & z2zz2D, | 
[V:1] AGFG3 & E6- | 
[V:2] CB,A,B,3 & E,3-E,2D, | 
[V:1] A2Bc3 & E6 | 
[V:2] A,2^G,A,3 & C,2B,,A,,3 | 
[V:1] edcd3- & A6- | 
[V:2] =G3F3 & z6 | 
[V:1] dABc3 & A6 | 
[V:2] =F3E3 & z6 | 
[V:1] c2Be3 & G3A3 | 
[V:2] D3C3 & z6 | 
[V:1] =fd=c!accent!B2B & A3-A3 | 
[V:2] D=FED2^D & z6 | 
[V:1] ^c3-c2B & A2FG3 | 
[V:2] E3E2=D & z2zE,3 | 
[V:1] A3z2z & A3x2x | 
[V:2] C2>B,2CD & F,3z2z | 
[V:1] z6 & z6 | 
[V:2] E2A,C2B, & z6 | 
[V:1] ABc dAB & CDED3 | 
[V:2] A,G,=G,F,2=F, & A,,6- | 
[V:1] c3-c2B & C3D3 | 
[V:2] E,3^F,2^G, & A,,6- | 
[V:1] !fermata!A6 & C6 |]  
[V:2] A,6 & !fermata!A,,6 |]  


